X: 15536
T: Glenties, The
R: mazurka
M: 3/4
K: Gmajor
|de fe dB|A2 F2 A2|B2 G2 B2|A2 F2 A2|
fg fe dB|A2 F2 A2|B2 d2 c2|d4 A2|
de fe dB|(3ABA F2 A2|(3BcB G2 B2|(3ABA F2 A2|
fg fe dB|A2 F2 A2|(3GAG F2 G2|F6|

